public/svgs/twin/title-ontology.svg

<svg width="403" height="242" viewBox="0 0 403 242" fill="none" xmlns="http://www.w3.org/2000/svg">
<path d="M350.681 38.2998V121.1H402.761V107.78H365.321V38.2998H350.681Z" fill="#BB1212"/>
<path d="M350.681 38.2998V121.1H402.761V107.78H365.321V38.2998H350.681Z" fill="black"/>
<path d="M0.879883 171.62V158.3H67.7199V171.62H41.6799V241.1H26.9199V171.62H0.879883Z" fill="#BB1212"/>
<path d="M0.879883 171.62V158.3H67.7199V171.62H41.6799V241.1H26.9199V171.62H0.879883Z" fill="black"/>
<path d="M71.3762 158.3L69.3362 161.18L86.6162 241.1H110.136L122.376 192.38L134.736 241.1H158.376L175.536 161.18L173.496 158.3H161.496L146.736 227.78H145.296L129.696 166.7H115.176L99.4562 227.78H98.1362L83.3762 158.3H71.3762Z" fill="#BB1212"/>
<path d="M71.3762 158.3L69.3362 161.18L86.6162 241.1H110.136L122.376 192.38L134.736 241.1H158.376L175.536 161.18L173.496 158.3H161.496L146.736 227.78H145.296L129.696 166.7H115.176L99.4562 227.78H98.1362L83.3762 158.3H71.3762Z" fill="black"/>
<path d="M184.459 241.1V158.3H199.099V241.1H184.459Z" fill="#BB1212"/>
<path d="M184.459 241.1V158.3H199.099V241.1H184.459Z" fill="black"/>
<path d="M214.698 241.1V158.3H230.658L267.378 217.34V158.3H282.018V241.1H266.178L229.338 182.06V241.1H214.698Z" fill="#BB1212"/>
<path d="M214.698 241.1V158.3H230.658L267.378 217.34V158.3H282.018V241.1H266.178L229.338 182.06V241.1H214.698Z" fill="black"/>
<path fill-rule="evenodd" clip-rule="evenodd" d="M269.163 118.22L294.723 38.2998H317.523L342.963 118.22L341.163 121.1H328.803L323.163 102.86H288.963L283.203 121.1H271.083L269.163 118.22ZM293.043 89.5398H319.203L307.203 51.6198H304.923L293.043 89.5398Z" fill="#BB1212"/>
<path fill-rule="evenodd" clip-rule="evenodd" d="M269.163 118.22L294.723 38.2998H317.523L342.963 118.22L341.163 121.1H328.803L323.163 102.86H288.963L283.203 121.1H271.083L269.163 118.22ZM293.043 89.5398H319.203L307.203 51.6198H304.923L293.043 89.5398Z" fill="black"/>
<path d="M207.883 38.2998V51.6198H233.923V121.1H248.683V51.6198H274.723V38.2998H207.883Z" fill="#BB1212"/>
<path d="M207.883 38.2998V51.6198H233.923V121.1H248.683V51.6198H274.723V38.2998H207.883Z" fill="black"/>
<path d="M184.964 121.1V38.2998H199.604V121.1H184.964Z" fill="#BB1212"/>
<path d="M184.964 121.1V38.2998H199.604V121.1H184.964Z" fill="black"/>
<path d="M107.587 57.8598V101.54C107.587 114.58 114.107 121.1 127.147 121.1H171.787V71.5398H139.627V84.8598H157.147V107.78H127.507C123.987 107.78 122.227 106.06 122.227 102.62V56.7798C122.227 53.3398 123.987 51.6198 127.507 51.6198H169.387V43.8198L162.307 38.2998H127.147C114.107 38.2998 107.587 44.8198 107.587 57.8598Z" fill="#BB1212"/>
<path d="M107.587 57.8598V101.54C107.587 114.58 114.107 121.1 127.147 121.1H171.787V71.5398H139.627V84.8598H157.147V107.78H127.507C123.987 107.78 122.227 106.06 122.227 102.62V56.7798C122.227 53.3398 123.987 51.6198 127.507 51.6198H169.387V43.8198L162.307 38.2998H127.147C114.107 38.2998 107.587 44.8198 107.587 57.8598Z" fill="black"/>
<path d="M78.5483 121.1V38.2998H93.1883V121.1H78.5483Z" fill="#BB1212"/>
<path d="M78.5483 121.1V38.2998H93.1883V121.1H78.5483Z" fill="black"/>
<path fill-rule="evenodd" clip-rule="evenodd" d="M1.19995 38.2998V121.1H33C54.6 121.1 65.4 110.26 65.4 88.5798V70.8198C65.4 49.1398 54.6 38.2998 33 38.2998H1.19995ZM33.84 107.78H15.84V51.6198H33.84C45.12 51.6198 50.76 57.2598 50.76 68.5398V90.8598C50.76 102.14 45.12 107.78 33.84 107.78Z" fill="#BB1212"/>
<path fill-rule="evenodd" clip-rule="evenodd" d="M1.19995 38.2998V121.1H33C54.6 121.1 65.4 110.26 65.4 88.5798V70.8198C65.4 49.1398 54.6 38.2998 33 38.2998H1.19995ZM33.84 107.78H15.84V51.6198H33.84C45.12 51.6198 50.76 57.2598 50.76 68.5398V90.8598C50.76 102.14 45.12 107.78 33.84 107.78Z" fill="black"/>
<path fill-rule="evenodd" clip-rule="evenodd" d="M1 0.679688V19.9997H4.416V13.5037H10.296C13.3387 13.5037 14.86 11.9917 14.86 8.96769V5.24369C14.86 2.20102 13.3387 0.679688 10.296 0.679688H1ZM10.212 10.3957H4.416V3.78769H10.212C11.0333 3.78769 11.444 4.18902 11.444 4.99169V9.16369C11.444 9.98502 11.0333 10.3957 10.212 10.3957Z" fill="#C11111"/>
<path fill-rule="evenodd" clip-rule="evenodd" d="M18.7734 19.9997V0.679688H28.0694C31.1121 0.679688 32.6334 2.20102 32.6334 5.24369V8.40769C32.6334 10.7597 31.7001 12.1877 29.8334 12.6917L33.1934 19.2717L32.7734 19.9997H29.8614L26.2774 12.9437H22.1894V19.9997H18.7734ZM22.1894 9.83569H27.9854C28.8068 9.83569 29.2174 9.42502 29.2174 8.60369V4.99169C29.2174 4.18902 28.8068 3.78769 27.9854 3.78769H22.1894V9.83569Z" fill="#C11111"/>
<path d="M36.8203 0.679688V19.9997H49.8123V16.8917H40.2363V11.5437H48.9723V8.43569H40.2363V3.78769H49.8123V0.679688H36.8203Z" fill="#C11111"/>
<path fill-rule="evenodd" clip-rule="evenodd" d="M53.582 19.9997V0.679688H61.002C66.042 0.679688 68.562 3.20902 68.562 8.26769V12.4117C68.562 17.4704 66.042 19.9997 61.002 19.9997H53.582ZM56.998 16.8917H61.198C63.83 16.8917 65.146 15.5757 65.146 12.9437V7.73569C65.146 5.10369 63.83 3.78769 61.198 3.78769H56.998V16.8917Z" fill="#C11111"/>
<path d="M72.75 0.679688V19.9997H76.166V0.679688H72.75Z" fill="#C11111"/>
<path d="M80.6458 15.4357V5.24369C80.6458 2.20102 82.1671 0.679688 85.2098 0.679688H92.8258L94.4778 1.96769V3.78769H85.2938C84.4724 3.78769 84.0618 4.18902 84.0618 4.99169V15.6877C84.0618 16.4904 84.4724 16.8917 85.2938 16.8917H94.4778V18.7117L92.8258 19.9997H85.2098C82.1671 19.9997 80.6458 18.4784 80.6458 15.4357Z" fill="#C11111"/>
<path d="M96.5537 0.679688V3.78769H102.63V19.9997H106.074V3.78769H112.15V0.679688H96.5537Z" fill="#C11111"/>
<path d="M115.215 19.9997V0.679688H118.631V19.9997H115.215Z" fill="#C11111"/>
<path d="M121.991 0.679688L121.543 1.35169L127.227 19.9997H132.771L138.483 1.35169L138.063 0.679688H135.067L130.279 16.8917H129.747L124.959 0.679688H121.991Z" fill="#C11111"/>
<path d="M141.383 19.9997V0.679688H154.375V3.78769H144.799V8.43569H153.535V11.5437H144.799V16.8917H154.375V19.9997H141.383Z" fill="#C11111"/>
<path d="M164.871 0.679688V19.9997H168.287V6.50369L173.383 17.3677H176.323L181.419 6.50369V19.9997H184.863V0.679688H180.663L174.867 13.0557L169.071 0.679688H164.871Z" fill="#C11111"/>
<path fill-rule="evenodd" clip-rule="evenodd" d="M189.337 15.4357V5.24369C189.337 2.20102 190.858 0.679688 193.901 0.679688H200.313C203.356 0.679688 204.877 2.20102 204.877 5.24369V15.4357C204.877 18.4784 203.356 19.9997 200.313 19.9997H193.901C190.858 19.9997 189.337 18.4784 189.337 15.4357ZM192.753 15.6877C192.753 16.4904 193.164 16.8917 193.985 16.8917H200.229C201.05 16.8917 201.461 16.4904 201.461 15.6877V4.99169C201.461 4.18902 201.05 3.78769 200.229 3.78769H193.985C193.164 3.78769 192.753 4.18902 192.753 4.99169V15.6877Z" fill="#C11111"/>
<path fill-rule="evenodd" clip-rule="evenodd" d="M209.359 0.679688V19.9997H216.779C221.819 19.9997 224.339 17.4704 224.339 12.4117V8.26769C224.339 3.20902 221.819 0.679688 216.779 0.679688H209.359ZM216.975 16.8917H212.775V3.78769H216.975C219.607 3.78769 220.923 5.10369 220.923 7.73569V12.9437C220.923 15.5757 219.607 16.8917 216.975 16.8917Z" fill="#C11111"/>
<path d="M228.527 19.9997V0.679688H241.519V3.78769H231.943V8.43569H240.679V11.5437H231.943V16.8917H241.519V19.9997H228.527Z" fill="#C11111"/>
<path d="M245.289 0.679688V19.9997H257.441V16.8917H248.705V0.679688H245.289Z" fill="#C11111"/>
<path d="M259.652 16.8917V18.7117L261.304 19.9997H268.388C271.431 19.9997 272.952 18.4784 272.952 15.4357V13.6157C272.952 11.1517 271.869 9.69569 269.704 9.24769L264.02 8.12769C263.385 7.99702 263.068 7.57702 263.068 6.86769V4.99169C263.068 4.18902 263.479 3.78769 264.3 3.78769H272.392V1.96769L270.74 0.679688H264.216C261.173 0.679688 259.652 2.20102 259.652 5.24369V6.78369C259.652 9.26636 260.735 10.7224 262.9 11.1517L268.584 12.2997C269.219 12.4304 269.536 12.8504 269.536 13.5597V15.6877C269.536 16.4904 269.125 16.8917 268.304 16.8917H259.652Z" fill="#C11111"/>
</svg>

<svg xmlns="http://www.w3.org/2000/svg" width="403" height="242" fill="none" viewBox="0 0 403 242"><path fill="#bb1212" d="M350.681 38.3v82.8h52.08v-13.32h-37.44V38.3z"/><path fill="#000" d="M350.681 38.3v82.8h52.08v-13.32h-37.44V38.3z"/><path fill="#bb1212" d="M.88 171.62V158.3h66.84v13.32H41.68v69.48H26.92v-69.48z"/><path fill="#000" d="M.88 171.62V158.3h66.84v13.32H41.68v69.48H26.92v-69.48z"/><path fill="#bb1212" d="m71.376 158.3-2.04 2.88 17.28 79.92h23.52l12.24-48.72 12.36 48.72h23.64l17.16-79.92-2.04-2.88h-12l-14.76 69.48h-1.44l-15.6-61.08h-14.52l-15.72 61.08h-1.32l-14.76-69.48z"/><path fill="#000" d="m71.376 158.3-2.04 2.88 17.28 79.92h23.52l12.24-48.72 12.36 48.72h23.64l17.16-79.92-2.04-2.88h-12l-14.76 69.48h-1.44l-15.6-61.08h-14.52l-15.72 61.08h-1.32l-14.76-69.48z"/><path fill="#bb1212" d="M184.459 241.1v-82.8h14.64v82.8z"/><path fill="#000" d="M184.459 241.1v-82.8h14.64v82.8z"/><path fill="#bb1212" d="M214.698 241.1v-82.8h15.96l36.72 59.04V158.3h14.64v82.8h-15.84l-36.84-59.04v59.04z"/><path fill="#000" d="M214.698 241.1v-82.8h15.96l36.72 59.04V158.3h14.64v82.8h-15.84l-36.84-59.04v59.04z"/><path fill="#bb1212" fill-rule="evenodd" d="m269.163 118.22 25.56-79.92h22.8l25.44 79.92-1.8 2.88h-12.36l-5.64-18.24h-34.2l-5.76 18.24h-12.12zm23.88-28.68h26.16l-12-37.92h-2.28z" clip-rule="evenodd"/><path fill="#000" fill-rule="evenodd" d="m269.163 118.22 25.56-79.92h22.8l25.44 79.92-1.8 2.88h-12.36l-5.64-18.24h-34.2l-5.76 18.24h-12.12zm23.88-28.68h26.16l-12-37.92h-2.28z" clip-rule="evenodd"/><path fill="#bb1212" d="M207.883 38.3v13.32h26.04v69.48h14.76V51.62h26.04V38.3z"/><path fill="#000" d="M207.883 38.3v13.32h26.04v69.48h14.76V51.62h26.04V38.3z"/><path fill="#bb1212" d="M184.964 121.1V38.3h14.64v82.8z"/><path fill="#000" d="M184.964 121.1V38.3h14.64v82.8z"/><path fill="#bb1212" d="M107.587 57.86v43.68q0 19.56 19.56 19.56h44.64V71.54h-32.16v13.32h17.52v22.92h-29.64q-5.28 0-5.28-5.16V56.78q0-5.16 5.28-5.16h41.88v-7.8l-7.08-5.52h-35.16q-19.56 0-19.56 19.56"/><path fill="#000" d="M107.587 57.86v43.68q0 19.56 19.56 19.56h44.64V71.54h-32.16v13.32h17.52v22.92h-29.64q-5.28 0-5.28-5.16V56.78q0-5.16 5.28-5.16h41.88v-7.8l-7.08-5.52h-35.16q-19.56 0-19.56 19.56"/><path fill="#bb1212" d="M78.548 121.1V38.3h14.64v82.8z"/><path fill="#000" d="M78.548 121.1V38.3h14.64v82.8z"/><path fill="#bb1212" fill-rule="evenodd" d="M1.2 38.3v82.8H33q32.4 0 32.4-32.52V70.82Q65.4 38.3 33 38.3zm32.64 69.48h-18V51.62h18q16.92 0 16.92 16.92v22.32q0 16.92-16.92 16.92" clip-rule="evenodd"/><path fill="#000" fill-rule="evenodd" d="M1.2 38.3v82.8H33q32.4 0 32.4-32.52V70.82Q65.4 38.3 33 38.3zm32.64 69.48h-18V51.62h18q16.92 0 16.92 16.92v22.32q0 16.92-16.92 16.92" clip-rule="evenodd"/><path fill="#c11111" fill-rule="evenodd" d="M1 .68V20h3.416v-6.496h5.88q4.564 0 4.564-4.536V5.244Q14.86.68 10.296.68zm9.212 9.716H4.416V3.788h5.796q1.232 0 1.232 1.204v4.172q0 1.232-1.232 1.232M18.773 20V.68h9.296q4.564 0 4.564 4.564v3.164q0 3.528-2.8 4.284l3.36 6.58-.42.728h-2.912l-3.584-7.056H22.19V20zM22.19 9.836h5.796q1.232 0 1.232-1.232V4.992q0-1.204-1.232-1.204H22.19z" clip-rule="evenodd"/><path fill="#c11111" d="M36.82.68V20h12.992v-3.108h-9.576v-5.348h8.736V8.436h-8.736V3.788h9.576V.68z"/><path fill="#c11111" fill-rule="evenodd" d="M53.582 20V.68h7.42q7.56 0 7.56 7.588v4.144q0 7.587-7.56 7.588zm3.416-3.108h4.2q3.948 0 3.948-3.948V7.736q0-3.948-3.948-3.948h-4.2z" clip-rule="evenodd"/><path fill="#c11111" d="M72.75.68V20h3.416V.68zM80.646 15.436V5.244Q80.646.68 85.21.68h7.616l1.652 1.288v1.82h-9.184q-1.233 0-1.232 1.204v10.696q0 1.203 1.232 1.204h9.184v1.82L92.826 20H85.21q-4.564 0-4.564-4.564M96.554.68v3.108h6.076V20h3.444V3.788h6.076V.68zM115.215 20V.68h3.416V20zM121.991.68l-.448.672L127.227 20h5.544l5.712-18.648-.42-.672h-2.996l-4.788 16.212h-.532L124.959.68zM141.383 20V.68h12.992v3.108h-9.576v4.648h8.736v3.108h-8.736v5.348h9.576V20zM164.871.68V20h3.416V6.504l5.096 10.864h2.94l5.096-10.864V20h3.444V.68h-4.2l-5.796 12.376L169.071.68z"/><path fill="#c11111" fill-rule="evenodd" d="M189.337 15.436V5.244q0-4.564 4.564-4.564h6.412q4.564 0 4.564 4.564v10.192q0 4.563-4.564 4.564h-6.412q-4.564 0-4.564-4.564m3.416.252q0 1.203 1.232 1.204h6.244q1.232 0 1.232-1.204V4.992q0-1.204-1.232-1.204h-6.244q-1.232 0-1.232 1.204zM209.359.68V20h7.42q7.56 0 7.56-7.588V8.268q0-7.588-7.56-7.588zm7.616 16.212h-4.2V3.788h4.2q3.948 0 3.948 3.948v5.208q0 3.948-3.948 3.948" clip-rule="evenodd"/><path fill="#c11111" d="M228.527 20V.68h12.992v3.108h-9.576v4.648h8.736v3.108h-8.736v5.348h9.576V20zM245.289.68V20h12.152v-3.108h-8.736V.68zM259.652 16.892v1.82L261.304 20h7.084q4.564 0 4.564-4.564v-1.82q0-3.696-3.248-4.368l-5.684-1.12q-.952-.197-.952-1.26V4.992q0-1.204 1.232-1.204h8.092v-1.82L270.74.68h-6.524q-4.564 0-4.564 4.564v1.54q0 3.723 3.248 4.368l5.684 1.148q.952.195.952 1.26v2.128q0 1.203-1.232 1.204z"/></svg>
